X:1

T:Who will dandle my Mary

T:Co a ni mire ri Màiri

M:9/8

L:1/8

S:Fraser Collection  (1874)

Z:AK/Fiddler’s Companion

K:G

G>AB BGB BGd|G>AB BGB (d2e)|G>AB BGB BGd|B<AG GDG (A2B):|

g>fe dec Bcd|g>fe dec (B2d)|g>fe dec Bcd|B<AG GDG (A2B)|

g>fe dec Bcd|g>fe dec (B2d)|gba gfe dcB|B<AG GDG (A2B)||

                       

WHOA HO DOBBIN. American, Country Dance Tune (2/4). C Major. Standard. AB tuning. Shaw (Cowboy Dances), 1943; pg. 285.

